X:1
T:Key Side. JBAT8.082
T:Key Side. JBAT8.082
T:Quayside,aka. JBAT8.082, The
T:James Hill
C:James Hill
L:1/8
Q:1/2=80
M:2/2
K:G
V:1 treble 
V:1
 df | g2 GB d2 DF | G2 G,B, D2 GB | c2 ec B2 dB | Aaag fdef | g2 GB d2 DF | G2 G,B, D2 GB | %7
 cedc BAGF | A2 G2 G2 :: Bc dBdg ecea | fdef g2 gf | e2 ed cBAG | FAd^c d2 ef | g2 gf e2 ed | %14
 cBAG FEDC | B,DGc BAGF | A2 G2 G2 :| %17

